packages/foundations/assets/icons/functional/images/audio & video/stop_24.svg

<svg width="24" height="24" viewBox="0 0 24 24" fill="none" xmlns="http://www.w3.org/2000/svg">
<g clip-path="url(#clip0_2202_478)">
<path fill-rule="evenodd" clip-rule="evenodd" d="M15 6C15.7956 6 16.5587 6.31607 17.1213 6.87868C17.6839 7.44129 18 8.20435 18 9V15C18 15.7956 17.6839 16.5587 17.1213 17.1213C16.5587 17.6839 15.7956 18 15 18H9C8.20435 18 7.44129 17.6839 6.87868 17.1213C6.31607 16.5587 6 15.7956 6 15V9C6 8.20435 6.31607 7.44129 6.87868 6.87868C7.44129 6.31607 8.20435 6 9 6H15ZM15 8H9C8.437 8 8 8.438 8 9V15C8 15.563 8.438 16 9 16H15C15.563 16 16 15.562 16 15V9C16 8.437 15.562 8 15 8Z" fill="#1A1C1F"/>
</g>
<defs>
<clipPath id="clip0_2202_478">
<rect width="24" height="24" fill="white"/>
</clipPath>
</defs>
</svg>

<svg xmlns="http://www.w3.org/2000/svg" width="24" height="24" fill="none"><g clip-path="url(#a)"><path fill="#1A1C1F" fill-rule="evenodd" d="M15 6a3 3 0 0 1 3 3v6a3 3 0 0 1-3 3H9a3 3 0 0 1-3-3V9a3 3 0 0 1 3-3zm0 2H9c-.563 0-1 .438-1 1v6c0 .563.438 1 1 1h6c.563 0 1-.438 1-1V9c0-.563-.438-1-1-1" clip-rule="evenodd"/></g><defs><clipPath id="a"><path fill="#fff" d="M0 0h24v24H0z"/></clipPath></defs></svg>
